X:165
T:Ranting Widow (reel), The 
T:The Youngest Daughter, The Tap Room
B:CRE1.177 (Baintreach na Radaireacht)
F:file ID: cre.1/165rant_w
S:John Potts
M:C
L:1/8
Q:180
R:reel
K:Em
E2BE dEBE|dBAF DEFD|E2BE dEBE|dBAF BEE2|
E2E2 dEBE|dBAF DEFD|E2BE dEBE|dBAF BEE2||
Beef gfe^c|dBAF DEFD|edef gfe^c|dBAF BEE2|
Beef gfe^c|d2d^c defg|afge fde^c|dBAF BEE2||

%%%

